!!!OTL: GRUESS DE GOTT
!!!ARE: Europa, Mitteleuropa, Deutschland, Wuerttemberg
!!!SCT: E0729A
!!!YEM: Copyright 1995, estate of Helmut Schaffrath.
**kern
*ICvox
*Ivox
*M4/4
*k[f#]
*G:
=1
{4g
4b
8dd
8cc
4b
=2
8cc
8b
4a
4b
4r}
=3
{4b
4a
4a
4a
=4
4b
8dd
8cc
4b
4r}
=5
{4g
4b
8dd
8cc
4b
=6
8cc
8b
4a
4b
4r}
=7
{4g
4b
8dd
8cc
4b
=8
8cc
8b
4a
4g
4r}
==
!!!AGN: Liebes - Lied, Leid, Klage
!!!ONB: ESAC (Essen Associative Code) Database: ERK2
!!!AMT: simple quadruple
!!!AIN: vox
!!!EED: Helmut Schaffrath
!!!EEV: 1.0
*-
